X: 22022
T: Kitty's Wedding
R: hornpipe
M: 4/4
K: Dmajor
fe|:"D"d2"G"Bd "D"A2FA|"Bm"BAF[AD] "D"D2ED|"G"B,DA,D "Bm"DFBF|"D"AFDF "A"E2fe|
"D"d2"G"Bd "D"A2FA|"Bm"BAF[AD] "D"D2ED|"G"B,DA,D "Bm"DFBF|1 "A"AFEF "D"D2 fe:|2 "A"AFEF "D"D2 fg:|
|:"D"afed "G"bafd|"D"Adfd "G"edBd|"D"DFAd "Bm"FAde|"D" fdgf "A"e2 fg|
"D"afed "G"bafd|"D" Adfd "G"edBd|"D"DFAd "Bm"FAdf|1 "A"eABc "D"d2 fg:|"A"eABc "D" d4:|

